!!!Genre:	Beygele
!!!Mode:	Minor
!!!Listening/dance:	dance
!!!One_Mode:	yes
**kern
*thru
*I"P1
*clefG2
*k[b-e-]
*g:
*M2/4
*>A
=1
8.gL
16aJk
16b-LL
16cc
16b-
16aJJ
=2
8gL
8aJ
8.b-TL
16gJk
=3
8.ccL
16ddJk
16ee-LL
16dd
16ff
16ee-JJ
=4
8.ddL
16ccJk
16ddLL
16ccJ
8b-J
=5
(16b-LL
16aa-X)
(16gg
16aa-JJ)
(16ffLL
16gg)
(16ee-
16ffJJ)
=6
(16ddLL
16ee-)
(16cc
16ddJJ)
4b-
=7
16b-LL
16f
16g
16aJJ
16b-LL
16cc
16a
16b-JJ
=8
2g
=9:|!|:
*>B
(8qg/
8cc)
4cc
16b-LL
16aJJ
=10
8b-
4b-
16aLL
16gJJ
=11
8cc
4cc
(16b-LL
16aJJ)
=12
4b-
4b-
=13
8cc
4cc
(16b-LL
16aJJ)
=14
4.b-
8dd
=15
(16ddLL
16cc)
(16cc
16b-JJ)
(16b-LL
16a)
(16a
16gJJ)
*>B1
=16
(16aLL
16b-JJ)
4g
8g
*>B2
=17:|!
16aLL
16b-JJ
4.g
==
*-
